src/assets/training.svg

<?xml version="1.0" encoding="UTF-8"?>
<svg width="37px" height="32px" viewBox="0 0 37 32" version="1.1" xmlns="http://www.w3.org/2000/svg" xmlns:xlink="http://www.w3.org/1999/xlink">
    <!-- Generator: Sketch 50 (54983) - http://www.bohemiancoding.com/sketch -->
    <title>Group 21</title>
    <desc>Created with Sketch.</desc>
    <defs>
        <polygon id="path-1" points="0.2933 0.0503 3.828 0.0503 3.828 3.5863 0.2933 3.5863"></polygon>
    </defs>
    <g id="Page-1" stroke="none" stroke-width="1" fill="none" fill-rule="evenodd">
        <g id="SERVICES" transform="translate(-752.000000, -449.000000)">
            <g id="Group-21" transform="translate(752.000000, 449.000000)">
                <path d="M25.25,18.5 L23.25,18.5 C23.25,19.655 21.546,20.921 19,21.192 L19,13.5 L17,13.5 L17,21.192 C14.454,20.921 12.75,19.655 12.75,18.5 L10.75,18.5 C10.75,20.94 13.426,22.891 17,23.202 L17,29.75 L19,29.75 L19,23.202 C22.574,22.891 25.25,20.94 25.25,18.5" id="Fill-2" fill="#F7007D"></path>
                <path d="M30.9221,28.3994 C30.5151,28.9974 29.6501,30.0004 28.4211,30.0004 L7.5791,30.0004 C6.3501,30.0004 5.4851,28.9974 5.0781,28.3994 C4.3271,27.2954 3.9571,25.8924 4.0161,24.6234 L4.8811,25.4884 C5.8011,24.5694 8.3511,25.0684 10.5381,27.2564 L11.9521,25.8424 C9.4091,23.2994 6.2011,22.4014 4.1911,23.5314 C4.2261,23.4074 4.2571,23.2794 4.3041,23.1624 C5.6891,19.6514 8.2561,17.9804 11.2221,16.3064 L11.4781,16.1614 L11.6151,15.9014 C12.4411,14.3334 14.8231,12.0004 18.0001,12.0004 C21.1761,12.0004 23.5591,14.3334 24.3851,15.9014 L24.5221,16.1614 L24.7781,16.3064 C27.7431,17.9804 30.3101,19.6514 31.6961,23.1624 C31.7031,23.1784 31.7061,23.1974 31.7121,23.2134 C30.9431,22.9914 30.0531,22.9884 29.0831,23.2304 C27.5741,23.6074 26.0241,24.5354 24.7171,25.8424 L26.1311,27.2564 C27.1701,26.2174 28.4231,25.4574 29.5681,25.1704 C30.5361,24.9284 31.3441,25.0444 31.7881,25.4884 L31.9751,25.3014 C31.8991,26.3754 31.5411,27.4894 30.9221,28.3994 M26.0081,14.7044 C24.6651,12.3894 21.6631,10.0004 18.0001,10.0004 C14.3361,10.0004 11.3351,12.3894 9.9921,14.7044 C6.9041,16.4624 4.0251,18.4194 2.4431,22.4284 C1.5981,24.5684 1.9931,27.4204 3.4241,29.5244 C4.5101,31.1214 5.9861,32.0004 7.5791,32.0004 L28.4211,32.0004 C30.0141,32.0004 31.4901,31.1214 32.5761,29.5244 C34.0071,27.4204 34.4011,24.5684 33.5571,22.4284 C31.9741,18.4194 29.0961,16.4624 26.0081,14.7044" id="Fill-4" fill="#F7007D"></path>
                <polygon id="Fill-6" fill="#F7007D" points="3.5859 12.4141 6.4139 9.5861 4.9999 8.1721 2.1719 11.0001"></polygon>
                <polygon id="Fill-8" fill="#F7007D" points="5.707 14.5356 8.536 11.7066 7.121 10.2926 4.293 13.1206"></polygon>
                <polygon id="Fill-10" fill="#F7007D" points="3.5859 8.1719 1.4639 6.0499 0.0499 7.4639 2.1719 9.5859"></polygon>
                <polygon id="Fill-12" fill="#F7007D" points="30.4644 9.5859 33.2934 12.4139 34.7074 10.9999 31.8784 8.1719"></polygon>
                <polygon id="Fill-14" fill="#F7007D" points="32.5859 13.1211 29.7569 10.2931 28.3429 11.7071 31.1719 14.5361"></polygon>
                <g id="Group-18" transform="translate(33.000000, 6.000000)">
                    <mask id="mask-2" fill="white">
                        <use xlink:href="#path-1"></use>
                    </mask>
                    <g id="Clip-17"></g>
                    <polygon id="Fill-16" fill="#F7007D" mask="url(#mask-2)" points="2.4143 0.0503 0.2933 2.1723 1.7073 3.5863 3.8283 1.4643"></polygon>
                </g>
                <polygon id="Fill-19" fill="#F7007D" points="14.625 8 26 5 18 5 22 0 10 3 18 3"></polygon>
            </g>
        </g>
    </g>
</svg>

<svg width="37" height="32" xmlns="http://www.w3.org/2000/svg" xmlns:xlink="http://www.w3.org/1999/xlink"><defs><path id="a" d="M.293.05h3.535v3.536H.293z"/></defs><g fill="none" fill-rule="evenodd"><path d="M25.25 18.5h-2c0 1.155-1.704 2.421-4.25 2.692V13.5h-2v7.692c-2.546-.271-4.25-1.537-4.25-2.692h-2c0 2.44 2.676 4.391 6.25 4.702v6.548h2v-6.548c3.574-.311 6.25-2.262 6.25-4.702" fill="#F7007D"/><path d="M30.922 28.4c-.407.597-1.272 1.6-2.5 1.6H7.578c-1.229 0-2.094-1.003-2.5-1.6a6.375 6.375 0 0 1-1.063-3.777l.865.865c.92-.919 3.47-.42 5.657 1.768l1.414-1.414c-2.543-2.543-5.75-3.44-7.76-2.31.034-.125.065-.253.112-.37 1.385-3.51 3.952-5.182 6.918-6.856l.256-.145.137-.26c.826-1.568 3.208-3.9 6.385-3.9 3.176 0 5.56 2.332 6.385 3.9l.137.26.256.145c2.965 1.674 5.532 3.345 6.918 6.856.007.016.01.035.016.051-.769-.222-1.659-.225-2.629.017-1.509.377-3.059 1.305-4.366 2.612l1.414 1.414c1.04-1.039 2.292-1.799 3.437-2.086.968-.242 1.776-.126 2.22.318l.187-.187c-.076 1.074-.434 2.188-1.053 3.098m-4.914-13.695C24.665 12.39 21.663 10 18 10c-3.664 0-6.665 2.39-8.008 4.704-3.088 1.758-5.967 3.715-7.549 7.724-.845 2.14-.45 4.992.981 7.096C4.51 31.121 5.986 32 7.58 32h20.842c1.593 0 3.07-.879 4.155-2.476 1.431-2.104 1.825-4.956.981-7.096-1.583-4.009-4.46-5.966-7.549-7.724M3.586 12.414l2.828-2.828L5 8.172 2.172 11zM5.707 14.536l2.829-2.83-1.415-1.413-2.828 2.828zM3.586 8.172L1.464 6.05.05 7.464l2.122 2.122zM30.464 9.586l2.83 2.828L34.706 11l-2.829-2.828zM32.586 13.121l-2.83-2.828-1.413 1.414 2.829 2.83z" fill="#F7007D"/><g transform="translate(33 6)"><mask id="b" fill="#fff"><use xlink:href="#a"/></mask><path fill="#F7007D" mask="url(#b)" d="M2.414.05L.294 2.172l1.413 1.414 2.121-2.122z"/></g><path fill="#F7007D" d="M14.625 8L26 5h-8l4-5-12 3h8z"/></g></svg>
